packages/ffe-icons/icons/filled/md/ad_units.svg

<svg xmlns="http://www.w3.org/2000/svg" height="24" viewBox="0 -960 960 960" width="24"><path d="M360-620.001q-12.769 0-21.384-8.616-8.615-8.615-8.615-21.384t8.615-21.384Q347.231-680 360-680h240q12.769 0 21.384 8.615t8.615 21.384q0 12.769-8.615 21.384-8.615 8.616-21.384 8.616H360Zm-67.691 560q-30.308 0-51.308-21t-21-51.308v-695.382q0-30.308 21-51.308t51.308-21h375.382q30.308 0 51.308 21t21 51.308v695.382q0 30.308-21 51.308t-51.308 21H292.309ZM280-230h400v-500.002H280v500.002Z"/></svg>

<svg xmlns="http://www.w3.org/2000/svg" height="24" viewBox="0 -960 960 960" width="24"><path d="M360-620q-12.77 0-21.38-8.62Q330-637.23 330-650t8.62-21.38Q347.23-680 360-680h240q12.77 0 21.38 8.62Q630-662.77 630-650t-8.62 21.38Q612.77-620 600-620H360ZM292.31-60Q262-60 241-81q-21-21-21-51.31v-695.38Q220-858 241-879q21-21 51.31-21h375.38Q698-900 719-879q21 21 21 51.31v695.38Q740-102 719-81q-21 21-51.31 21H292.31ZM280-230h400v-500H280v500Z"/></svg>
